svg/file-tray-stacked.svg

<?xml version="1.0" encoding="UTF-8" standalone="no"?>
<svg
   xmlns:dc="http://purl.org/dc/elements/1.1/"
   xmlns:cc="http://creativecommons.org/ns#"
   xmlns:rdf="http://www.w3.org/1999/02/22-rdf-syntax-ns#"
   xmlns:svg="http://www.w3.org/2000/svg"
   xmlns="http://www.w3.org/2000/svg"
   xmlns:sodipodi="http://sodipodi.sourceforge.net/DTD/sodipodi-0.dtd"
   xmlns:inkscape="http://www.inkscape.org/namespaces/inkscape"
   class="ionicon"
   viewBox="0 0 512 512"
   version="1.1"
   id="svg6"
   sodipodi:docname="file-tray-stacked.svg"
   inkscape:version="1.0.2 (e86c8708, 2021-01-15)">
  <metadata
     id="metadata12">
    <rdf:RDF>
      <cc:Work
         rdf:about="">
        <dc:format>image/svg+xml</dc:format>
        <dc:type
           rdf:resource="http://purl.org/dc/dcmitype/StillImage" />
      </cc:Work>
    </rdf:RDF>
  </metadata>
  <defs
     id="defs10" />
  <sodipodi:namedview
     pagecolor="#ffffff"
     bordercolor="#666666"
     borderopacity="1"
     objecttolerance="10"
     gridtolerance="10"
     guidetolerance="10"
     inkscape:pageopacity="0"
     inkscape:pageshadow="2"
     inkscape:window-width="689"
     inkscape:window-height="480"
     id="namedview8"
     showgrid="false"
     inkscape:zoom="1.3027344"
     inkscape:cx="256"
     inkscape:cy="256"
     inkscape:window-x="44"
     inkscape:window-y="25"
     inkscape:window-maximized="0"
     inkscape:current-layer="svg6" />
  <title
     id="title2">File Tray Stacked</title>
  <path
     style="color:#000000;font-style:normal;font-variant:normal;font-weight:normal;font-stretch:normal;font-size:medium;line-height:normal;font-family:sans-serif;font-variant-ligatures:normal;font-variant-position:normal;font-variant-caps:normal;font-variant-numeric:normal;font-variant-alternates:normal;font-variant-east-asian:normal;font-feature-settings:normal;font-variation-settings:normal;text-indent:0;text-align:start;text-decoration:none;text-decoration-line:none;text-decoration-style:solid;text-decoration-color:#000000;letter-spacing:normal;word-spacing:normal;text-transform:none;writing-mode:lr-tb;direction:ltr;text-orientation:mixed;dominant-baseline:auto;baseline-shift:baseline;text-anchor:start;white-space:normal;shape-padding:0;shape-margin:0;inline-size:0;clip-rule:nonzero;display:inline;overflow:visible;visibility:visible;isolation:auto;mix-blend-mode:normal;color-interpolation:sRGB;color-interpolation-filters:linearRGB;solid-color:#000000;solid-opacity:1;vector-effect:none;fill:#000000;fill-opacity:1;fill-rule:nonzero;stroke-width:1;stroke-linecap:butt;stroke-linejoin:miter;stroke-miterlimit:4;stroke-dasharray:none;stroke-dashoffset:0;stroke-opacity:1;color-rendering:auto;image-rendering:auto;shape-rendering:auto;text-rendering:auto;enable-background:accumulate;stop-color:#000000;stop-opacity:1;stroke:none;opacity:1"
     d="M 464,352 H 320 c -8.83656,0 -16,7.16344 -16,16 0,26.50969 -21.49033,47.99998 -48,47.99998 -26.50967,0 -48,-21.49029 -48,-47.99998 0,-8.83656 -7.16344,-16 -16,-16 H 48 c -8.836556,0 -16,7.16344 -16,16 v 64 c 0.03858,35.33023 28.669768,63.96142 64,64 h 320 c 35.33023,-0.0386 63.96142,-28.66977 64,-64 v -64 c 0,-8.83656 -7.16344,-16 -16,-16 z M 479.46,187.88 447.61,68.45 C 441.27,35.59 417.54,16 384,16 H 128 C 111.2,16 97,20.69 85.9,29.94 74.8,39.19 67.66,52 64.4,68.4 L 32.54,187.88 c -0.359448,1.3438 -0.540998,2.72896 -0.54,4.12 v 48 c 0,35.29 28.71,80 64,80 h 320 c 35.29,0 64,-44.71 64,-80 v -48 c 10e-4,-1.39104 -0.18055,-2.7762 -0.54,-4.12 z M 440.57,176 H 320 c -8.78465,-0.0443 -15.94493,7.03541 -16,15.82 0,26.50969 -21.49033,47.99998 -48,47.99998 -26.50967,0 -48,-21.49029 -48,-47.99998 -0.0551,-8.78459 -7.21535,-15.86432 -16,-15.82 H 71.43 c -1.315564,-8e-4 -2.272047,-1.24968 -1.93,-2.52 L 95.71,75 C 99.26,56.59 109.52,48 128,48 h 256 c 18.59,0 28.84,8.53 32.25,26.85 l 26.25,98.63 c 0.34205,1.27032 -0.61444,2.5192 -1.93,2.52 z"
     id="path4" />
</svg>

<svg xmlns="http://www.w3.org/2000/svg" width="512" height="512" viewBox="0 0 512 512"><title>ionicons-v5-i</title><path d="M464,352H320a16,16,0,0,0-16,16,48,48,0,0,1-96,0,16,16,0,0,0-16-16H48a16,16,0,0,0-16,16v64a64.07,64.07,0,0,0,64,64H416a64.07,64.07,0,0,0,64-64V368A16,16,0,0,0,464,352Z"/><path d="M479.46,187.88,447.61,68.45C441.27,35.59,417.54,16,384,16H128c-16.8,0-31,4.69-42.1,13.94S67.66,52,64.4,68.4L32.54,187.88A15.9,15.9,0,0,0,32,192v48c0,35.29,28.71,80,64,80H416c35.29,0,64-44.71,64-80V192A15.9,15.9,0,0,0,479.46,187.88ZM440.57,176H320a15.92,15.92,0,0,0-16,15.82,48,48,0,1,1-96,0A15.92,15.92,0,0,0,192,176H71.43a2,2,0,0,1-1.93-2.52L95.71,75C99.26,56.59,109.52,48,128,48H384c18.59,0,28.84,8.53,32.25,26.85l26.25,98.63A2,2,0,0,1,440.57,176Z"/></svg>
